src/assets/svg/benefit-img5.svg

<svg width="40" height="40" viewBox="0 0 40 40" fill="none" xmlns="http://www.w3.org/2000/svg">
<path d="M28.7765 6.45434C29.7733 5.45752 31.3895 5.45752 32.3863 6.45434L34.1421 8.21011C35.1813 9.24939 35.1813 10.9345 34.1421 11.9738L33.908 12.2078C33.2109 12.905 33.0776 13.9798 33.4475 14.8937C33.8225 15.8203 34.6798 16.4882 35.6793 16.4882H36.0143C37.4828 16.4882 38.6733 17.6787 38.6733 19.1472V21.5261C38.6733 22.9946 37.4828 24.1851 36.0143 24.1851H35.6793C34.6798 24.1851 33.8225 24.853 33.4475 25.7796C33.0776 26.6935 33.2109 27.7684 33.908 28.4655L34.1421 28.6995C35.1813 29.7389 35.1813 31.4239 34.1421 32.4632L32.3863 34.219C31.3895 35.216 29.7733 35.216 28.7765 34.219L28.6371 34.0796C27.8956 33.3381 26.7444 33.2155 25.7822 33.6325C24.8506 34.0361 24.1851 34.9107 24.1851 35.9259V36.1178C24.1851 37.5291 23.0409 38.6733 21.6295 38.6733H18.893C17.5649 38.6733 16.4882 37.5967 16.4882 36.2683C16.4882 35.1651 15.733 34.2244 14.7061 33.8205C13.713 33.43 12.5453 33.5705 11.7908 34.3251C10.8526 35.2635 9.33135 35.2635 8.39313 34.3251L6.27399 32.2059C5.37677 31.3087 5.37677 29.8541 6.27399 28.9568C7.01525 28.2156 7.14234 27.0734 6.72484 26.1118C6.68577 26.0218 6.64767 25.9316 6.61053 25.841C6.21824 24.8844 5.32955 24.1851 4.29567 24.1851C3.02782 24.1851 2 23.1573 2 21.8894V18.7839C2 17.516 3.02782 16.4882 4.29567 16.4882C5.32955 16.4882 6.21824 15.7889 6.61053 14.8323C6.64767 14.7418 6.68577 14.6515 6.72484 14.5615C7.14234 13.6 7.01525 12.4578 6.27399 11.7165C5.37677 10.8193 5.37677 9.36459 6.27399 8.46736L8.39309 6.34826C9.33135 5.41004 10.8526 5.41004 11.7908 6.34826C12.5453 7.10281 13.7131 7.24328 14.7062 6.85277C15.733 6.44894 16.4882 5.50825 16.4882 4.40481C16.4882 3.07665 17.5649 2 18.8931 2H21.6295C23.041 2 24.1851 3.14421 24.1851 4.55563V4.7473C24.1851 5.76265 24.8506 6.63721 25.7823 7.04089C26.7444 7.4578 27.8956 7.33524 28.637 6.59378L28.7765 6.45434Z" stroke="#00C700" stroke-width="2.5"/>
<path d="M13.1948 25.5477L17.8623 15.5927C17.8858 15.5427 17.9361 15.5107 17.9913 15.5107C18.048 15.5107 18.0992 15.5443 18.1219 15.5962L22.4597 25.5477M15.125 22.8454H19.7574M26.7061 25.5477V15.5107" stroke="#00C700" stroke-width="2.5" stroke-linecap="round"/>
</svg>

<svg xmlns="http://www.w3.org/2000/svg" width="40" height="40" fill="none"><path stroke="#00C700" stroke-width="2.5" d="M28.777 6.454a2.553 2.553 0 0 1 3.61 0l1.755 1.756a2.66 2.66 0 0 1 0 3.764l-.234.234c-.697.697-.83 1.772-.46 2.686.374.926 1.232 1.594 2.231 1.594h.335a2.66 2.66 0 0 1 2.66 2.66v2.378a2.66 2.66 0 0 1-2.66 2.66h-.335c-1 0-1.857.667-2.232 1.594-.37.913-.236 1.988.461 2.685l.234.235a2.66 2.66 0 0 1 0 3.763l-1.756 1.756a2.55 2.55 0 0 1-3.61 0l-.139-.14c-.741-.74-1.893-.864-2.855-.447-.931.404-1.597 1.279-1.597 2.294v.192a2.556 2.556 0 0 1-2.555 2.555h-2.737a2.405 2.405 0 0 1-2.405-2.405c0-1.103-.755-2.044-1.782-2.447-.993-.391-2.16-.25-2.915.504a2.4 2.4 0 0 1-3.398 0l-2.119-2.12a2.297 2.297 0 0 1 0-3.248c.741-.741.868-1.884.45-2.845l-.113-.271c-.393-.957-1.281-1.656-2.315-1.656A2.296 2.296 0 0 1 2 21.89v-3.105a2.296 2.296 0 0 1 2.296-2.296c1.034 0 1.922-.7 2.315-1.656l.114-.27c.417-.962.29-2.104-.451-2.845a2.297 2.297 0 0 1 0-3.25l2.12-2.119a2.403 2.403 0 0 1 3.397 0c.754.755 1.922.895 2.915.505 1.027-.404 1.782-1.345 1.782-2.448A2.405 2.405 0 0 1 18.893 2h2.736a2.556 2.556 0 0 1 2.556 2.556v.191c0 1.016.666 1.89 1.597 2.294.962.417 2.114.294 2.855-.447z"/><path stroke="#00C700" stroke-linecap="round" stroke-width="2.5" d="m13.195 25.548 4.667-9.955a.143.143 0 0 1 .26.003l4.338 9.952m-7.335-2.703h4.632m6.95 2.703V15.51"/></svg>
